assets/img/logos/logo-sponsor-epfl.svg

<svg fill="none" height="25" viewBox="0 0 84 25" width="84" xmlns="http://www.w3.org/2000/svg" xmlns:xlink="http://www.w3.org/1999/xlink"><clipPath id="a"><path d="m.73941.560028h83.0769v24h-83.0769z"/></clipPath><g clip-path="url(#a)" fill="#808080"><path d="m.73941 10.3412h5.20597v-5.34344h12.25662v-4.437732h-17.46259z"/><path d="m.73941 24.56h17.46259v-4.4377h-12.25662v-5.3434h-5.20597z"/><path d="m5.94538 10.3412h11.20902v4.4377h-11.20902z"/><path d="m39.9094 2.7653c-.7404-.70677-1.6217-1.25132-2.587-1.59849-1.2426-.434845-2.5546-.640481-3.8715-.606792h-10.7854v23.999982h5.206v-9.7811h5.5794c1.3108.0315 2.6165-.1741 3.8533-.6068.9717-.3449 1.8595-.8896 2.6052-1.5985.648-.6376 1.1444-1.4112 1.453-2.2641.6072-1.70206.6072-3.55992 0-5.26194-.3074-.8588-.8038-1.63853-1.453-2.28226zm-3.6437 6.27623c-.267.35508-.6215.63579-1.0293.81509-.4743.20158-.9764.33138-1.4894.38488-.5835.0684-1.1706.1017-1.7581.0997h-4.1174v-5.34345h4.122c.5875-.00205 1.1746.03122 1.7581.09963.5136.05272 1.016.18408 1.4893.38943.4069.17673.7602.45616 1.0248.81057.273.39968.4103.87571.3917 1.35849.0245.49195-.113.97843-.3917 1.38566z"/><path d="m71.5506 20.1223v-19.562272h-5.2059v23.999972h17.4625v-4.4377z"/><path d="m45.1109 10.3412h5.2059v-5.34344h12.2566v-4.437732h-17.4625z"/><path d="m45.1109 14.7789h5.2059v9.7811h-5.2059z"/><path d="m50.3168 10.3412h11.2091v4.4377h-11.2091z"/></g></svg>

<svg width="84" height="25" viewBox="0 0 84 25" fill="none" xmlns="http://www.w3.org/2000/svg">
<g clip-path="url(#clip0_2557_295)">
<path d="M0.73941 10.3412H5.94538V4.99776H18.202V0.560028H0.73941V10.3412Z" fill="gray"/>
<path d="M0.73941 24.56H18.202V20.1223H5.94538V14.7789H0.73941V24.56Z" fill="gray"/>
<path d="M5.94538 10.3412H17.1544V14.7789H5.94538V10.3412Z" fill="gray"/>
<path d="M39.9094 2.7653C39.169 2.05853 38.2877 1.51398 37.3224 1.16681C36.0798 0.731965 34.7678 0.526329 33.4509 0.560018H22.6655V24.56H27.8715V14.7789H33.4509C34.7617 14.8104 36.0674 14.6048 37.3042 14.1721C38.2759 13.8272 39.1637 13.2825 39.9094 12.5736C40.5574 11.936 41.0538 11.1624 41.3624 10.3095C41.9696 8.60744 41.9696 6.74958 41.3624 5.04756C41.055 4.18876 40.5586 3.40903 39.9094 2.7653ZM36.2657 9.04153C35.9987 9.39661 35.6442 9.67732 35.2364 9.85662C34.7621 10.0582 34.26 10.188 33.747 10.2415C33.1635 10.3099 32.5764 10.3432 31.9889 10.3412H27.8715V4.99775H31.9935C32.581 4.9957 33.1681 5.02897 33.7516 5.09738C34.2652 5.1501 34.7676 5.28146 35.2409 5.48681C35.6478 5.66354 36.0011 5.94297 36.2657 6.29738C36.5387 6.69706 36.676 7.17309 36.6574 7.65587C36.6819 8.14782 36.5444 8.6343 36.2657 9.04153Z" fill="gray"/>
<path d="M71.5506 20.1223V0.560028H66.3447V24.56H83.8072V20.1223H71.5506Z" fill="gray"/>
<path d="M45.1109 10.3412H50.3168V4.99776H62.5734V0.560028H45.1109V10.3412Z" fill="gray"/>
<path d="M45.1109 14.7789H50.3168V24.56H45.1109V14.7789Z" fill="gray"/>
<path d="M50.3168 10.3412H61.5259V14.7789H50.3168V10.3412Z" fill="gray"/>
</g>
<defs>
<clipPath id="clip0_2557_295">
<rect width="83.0769" height="24" fill="gray" transform="translate(0.73941 0.560028)"/>
</clipPath>
</defs>
</svg>
